src/assets/close-circle.svg

<svg fill="none" height="16" viewBox="0 0 16 16" width="16" xmlns="http://www.w3.org/2000/svg"><path d="m14.6666 8.00004c0 3.68186-2.9848 6.66666-6.66668 6.66666-3.6819 0-6.66667-2.9848-6.66667-6.66666 0-3.6819 2.98477-6.66667 6.66667-6.66667 3.68188 0 6.66668 2.98477 6.66668 6.66667z" fill="#767676"/><g clip-rule="evenodd" fill="#fff" fill-rule="evenodd"><path d="m5.17144 5.1717c.23431-.23431.65685-.19167.94377.09524l4.61789 4.61784c.2869.28692.3295.70942.0952.94382-.2343.2343-.6569.1916-.94378-.0953l-4.61784-4.61783c-.28691-.28691-.32956-.70945-.09524-.94377z"/><path d="m10.8284 5.17144c.2343.23431.1917.65685-.0952.94377l-4.61786 4.61789c-.28692.2869-.70946.3295-.94377.0952-.23432-.2343-.19168-.6569.09524-.94378l4.61784-4.61784c.28695-.28691.70945-.32956.94375-.09524z"/></g></svg>

<svg width="16" height="16" viewBox="0 0 16 16" fill="none" xmlns="http://www.w3.org/2000/svg">
<path d="M14.6666 8.00004C14.6666 11.6819 11.6818 14.6667 7.99992 14.6667C4.31802 14.6667 1.33325 11.6819 1.33325 8.00004C1.33325 4.31814 4.31802 1.33337 7.99992 1.33337C11.6818 1.33337 14.6666 4.31814 14.6666 8.00004Z" fill="#767676"/>
<path fill-rule="evenodd" clip-rule="evenodd" d="M5.17144 5.1717C5.40575 4.93739 5.82829 4.98003 6.11521 5.26694L10.7331 9.88478C11.02 10.1717 11.0626 10.5942 10.8283 10.8286C10.594 11.0629 10.1714 11.0202 9.88452 10.7333L5.26668 6.11547C4.97977 5.82856 4.93712 5.40602 5.17144 5.1717Z" fill="white"/>
<path fill-rule="evenodd" clip-rule="evenodd" d="M10.8284 5.17144C11.0627 5.40575 11.0201 5.82829 10.7332 6.11521L6.11534 10.7331C5.82842 11.02 5.40588 11.0626 5.17157 10.8283C4.93725 10.594 4.97989 10.1714 5.26681 9.88452L9.88465 5.26668C10.1716 4.97977 10.5941 4.93712 10.8284 5.17144Z" fill="white"/>
</svg>
